X:1
T:First song
T:First song
T:ganassi
Z:ganassi
L:1/8
M:2/2
K:C
V:1 treble nm="Piano" snm="Pno."
V:1
|: z4 G4 | G8 | D8 | G8 | c8 | B8 | A8 | G8 | z4 G4 | A8 | c8 | B8 | A8 | E8 | F8 | G8 :: z4 G4 | %17
 c8 | B8 | c8 | d8 | d8 | c8 | d8 | z4 f4 | e8 | c8 | d8- | d4 c4 | B8 | A8 | G8 | z4 B4 | A8 | %34
 D8 | G8 | A8 | B8 | A8 | G8- | G8 :| %41

